!!!COM:	la Rue, Pierre de
!!!CDT:	~1452///-1518/11/20
!!!OTL:	Magnificat Secundi toni
!!!AGN:	Motet
!!!SCT:	Rue2009
!!!SCA:	Rue2009
!!!voices:	4
**kern	**kern	**kern	**kern
*staff4	*staff3	*staff2	*staff1
*Ivox	*Ivox	*Ivox	*Ivox
*I"Bassus	*I"Tenor	*I"Contra	*I"Discantus
*I'B	*I'T	*I'C	*I'D
*>[A,B,C,D1,D2,E,F]	*>[A,B,C,D1,D2,E,F]	*>[A,B,C,D1,D2,E,F]	*>[A,B,C,D1,D2,E,F]
*>version1[A,B,C,D1,E,F]	*>version1[A,B,C,D1,E,F]	*>version1[A,B,C,D1,E,F]	*>version1[A,B,C,D1,E,F]
*>version2[A,B,C,D2,E,F]	*>version2[A,B,C,D2,E,F]	*>version2[A,B,C,D2,E,F]	*>version2[A,B,C,D2,E,F]
*>A	*>A	*>A	*>A
*clefF4	*clefGv2	*clefG2	*clefG2
*k[]	*k[]	*k[]	*k[]
*M2/1	*M2/1	*M2/1	*M2/1
*met(C|)	*met(C|)	*met(C|)	*met(C|)
=1-	=1-	=1-	=1-
!	!	!	!LO:TX:X=-40:Z=8:t=[In all voices a one-flat signature is apparently needed.]
!!section: Et exsultavit
!!!OMD: Et exsultavit
1c	1c	0r	0r
2A\	2c\	.	.
[2B-i\	[2d\	.	.
=2	=2	=2	=2
2B-\]	2d\]	0r	0r
4A\	4c\	.	.
4G\	4B-i\	.	.
2A\	2c\	.	.
2B-i\	[2d\	.	.
=3	=3	=3	=3
1G	2d\]	1r	1r
.	2e\	.	.
1F	1f	1cc	1cc
=4	=4	=4	=4
0r	0r	2a/	2cc\
.	.	1b-i	1dd
.	.	4a/	4cc\
.	.	4g/	4b-i\
=5	=5	=5	=5
0r	0r	2a/	2cc\
.	.	2b-i\	1dd
.	.	1g	.
.	.	.	2ee\
=6	=6	=6	=6
1r	1r	2f/	0ff
.	.	4e/	.
.	.	4d/	.
1F	1f	1c	.
=7	=7	=7	=7
1F	1f	1r	0r
1c	1e	1cc	.
=8	=8	=8	=8
0d	0f	1cc	1r
.	.	1b	1ff
=9	=9	=9	=9
0c	0g	0cc	1ff
.	.	.	1ee
=10	=10	=10	=10
2.F\	0f	2.a/	0ff
4G\	.	4b-i\	.
2A\	.	2cc\	.
2B-i\	.	2dd\	.
=11	=11	=11	=11
2.G\	0r	2b-i\	0gg
.	.	1g	.
4A\	.	.	.
2B-i\	.	.	.
2c\	.	4f/	.
.	.	4e/	.
=12	=12	=12	=12
2.d\	1r	2d/	2.ff\
.	.	2a/	.
4c\	.	.	4ee\
2B-i\	1f	2b-i\	2dd\
[2A\	.	2cc\	[2cc\
=13	=13	=13	=13
2A\]	1f	1a	2cc\]
4G\	.	.	4b-i\
4F\	.	.	4a/
1c	1e	1r	2g/
.	.	.	4a/
.	.	.	4g/
=14	=14	=14	=14
0F	0f	1.cc	1.a
.	.	4b-i\	4g/
.	.	4a/	4f/
=15	=15	=15	=15
1r	0g	1b-i	0e
1c	.	[1cc	.
=16	=16	=16	=16
1c	1g	1cc]	2r
.	.	.	2ee\
1c	1g	1c	1ee
=17	=17	=17	=17
1.A	1a	2.c/	1ee
.	.	4d/	.
.	2a\	4e/	1ee
.	.	4c/	.
[2c\	[2g\	[2e/	.
=18	=18	=18	=18
2c\]	2g\]	2e/]	1ff
4B-i\	1f	4d/	.
4A\	.	4c/	.
1G	.	1B-i	1gg
.	2e\	.	.
=19	=19	=19	=19
0F	0f	2c/	2.cc\
.	.	2cc\	.
.	.	.	8b-i\L
.	.	.	8cc\J
.	.	2a/	2dd\
.	.	[2cc\	2cc\
=20	=20	=20	=20
1r	0r	2cc\]	2ff\
.	.	4b-i\	1ff
.	.	4a/	.
1c	.	1g	.
.	.	.	2ee\
=21	=21	=21	=21
1d	1r	0f	1ff
[1d	1f	.	2r
.	.	.	2ff\
=22	=22	=22	=22
2d\]	1f	0r	2.ff\
2c\	.	.	.
.	.	.	4ee\
2B-i\	1f	.	2dd\
2A\	.	.	2cc\
=23	=23	=23	=23
2G\	2r	2r	2b-i\
2F\	2f\	1d	2a/
1E	1g	.	1ee
.	.	2c/	.
=24	=24	=24	=24
1D	1a	1f	1ff
1r	1g	1e	2.gg\
.	.	.	4ff\
=25	=25	=25	=25
1A	1.a	1r	4ee\
.	.	.	4dd\
.	.	.	1ff
1A	.	[1c	.
.	4g\	.	4ee\
.	4f\	.	4dd\
=26	=26	=26	=26
2.A\	1e	1c]	2.cc\
4B-i\	.	.	4dd\
2c\	2r	1c	2ee\
[2F\	[2f\	.	[2a/
=27	=27	=27	=27
4F\]	2f\]	2.c/	4a/]
4G\	.	.	4b-i\
2A\	2e\	.	2cc\
.	.	8B-/L	.
.	.	8c/J	.
2D\	2f\	2d/	2f/
[2A\	2e\	2e/	[2cc\
=28	=28	=28	=28
4A\]	2f\	2c/	4cc\]
4B-i\	.	.	4dd\
2c\	2e\	2.cc\	2ee\
2.F\	2.c\	.	2ff\
.	.	4b-i\	.
.	.	[2a/	[2ee\
4G\	4B-i\	.	.
=29	=29	=29	=29
2A\	2c\	2a/]	2ee\]
2B-i\	2d\	2g/	2dd\
1A	1e	1a	4cc#i\
.	.	.	4b\
.	.	.	2cc#i\
=30	=30	=30	=30
1D	2r	1r	2dd\
.	2d\	.	2ff\
1r	2d\	1a	2ff\
.	2c\	.	2ee\
=31	=31	=31	=31
2r	2d\	1a	2dd\
2D\	2A/	.	1ff
2D\	2d\	2a/	.
[2A\	2e\	[2cc\	4ee\
.	.	.	4dd\
=32	=32	=32	=32
2A\]	1f	2cc\]	2cc\
4G\	.	4b-i\	1dd
4F\	.	4a/	.
2G\	1e	2b-i\	.
2A\	.	2cc\	2cc#i\
=33	=33	=33	=33
[0Dl	[0dl	2.f/	[0ddl
.	.	4g/	.
.	.	2a/	.
.	.	2b-i\	.
=34	=34	=34	=34
0D]	0d]	0al	0dd]
!!LO:LB:i:g=z
=35||	=35||	=35||	=35||
*>B	*>B	*>B	*>B
*clefF4	*clefGv2	*clefG2	*clefG2
*k[]	*k[]	*k[]	*k[]
*M2/1	*M2/1	*M2/1	*M2/1
*met(C|)	*met(C|)	*met(C|)	*met(C|)
!!section: Quia fecit
!!!OMD: Quia fecit
0r	0r	1.cc	1r
.	.	.	1cc
.	.	4b-i\	.
.	.	4a/	.
=36	=36	=36	=36
0r	0r	2b-i\	2dd\
.	.	1cc	1ee
.	.	4b-i\	4dd\
.	.	4a/	4cc\
=37	=37	=37	=37
0r	0r	1g	2dd\
.	.	.	2ee\
.	.	2f/	2.a/
.	.	2cc\	.
.	.	.	4b-i\
=38	=38	=38	=38
0r	0r	2a/	4cc\
.	.	.	4dd\
.	.	1cc	1ee
.	.	4b-i\	4dd\
.	.	4a/	4cc\
=39	=39	=39	=39
0r	1r	4b-i\	4dd\
.	.	4a/	4cc\
.	.	4g/	1ff
.	.	4f/	.
.	1c	1g	.
.	.	.	2ee\
=40	=40	=40	=40
1F	2d\	0f	0ff
.	1c	.	.
1F	.	.	.
.	[2f\	.	.
=41	=41	=41	=41
1G	4f\]	0r	0r
.	4e\	.	.
.	2e\	.	.
2F\	2.f\	.	.
2B-i\	.	.	.
.	4e\	.	.
=42	=42	=42	=42
2B-i\	2d\	0r	0r
2A\	2c\	.	.
4B-i\	2r	.	.
4A\	.	.	.
4G\	2f\	.	.
4F\	.	.	.
=43	=43	=43	=43
1G	2f\	0r	0r
.	2e\	.	.
2.F\	2f\	.	.
.	4e\	.	.
4G\	4d\	.	.
=44	=44	=44	=44
4A\	4c\	0r	0r
4B-i\	4d\	.	.
2c\	4e\	.	.
.	4f\	.	.
4B-i\	4g\	.	.
4A\	4f\	.	.
4G\	4e\	.	.
4F\	4d\	.	.
=45	=45	=45	=45
4G\	2e\	1r	1r
4F\	.	.	.
4E\	1d	.	.
4D\	.	.	.
1E	.	1g	1ee
.	2c#i\	.	.
=46	=46	=46	=46
0D	0d	1f	1ff
.	.	1a	1ff
=47	=47	=47	=47
0r	0r	2.g/	1.gg
.	.	4a/	.
.	.	4b-i\	.
.	.	4cc\	.
.	.	[2dd\	4ff\
.	.	.	4ee\
=48	=48	=48	=48
0r	0r	2dd\]	4ff\
.	.	.	4ee\
.	.	1cc	4dd\
.	.	.	4cc\
.	.	.	1dd
.	.	2b\	.
=49	=49	=49	=49
1r	1r	1.cc	2cc\
.	.	.	4b-i\
.	.	.	4a/
1c	1e	.	1g
.	.	4b-i\	.
.	.	4a/	.
=50	=50	=50	=50
2d\	0f	0a	1f
2d\	.	.	.
4d\	.	.	1r
4c\	.	.	.
4B-i\	.	.	.
4A\	.	.	.
=51	=51	=51	=51
2B-i\	0f	0r	0r
4A\	.	.	.
4G\	.	.	.
1A	.	.	.
=52	=52	=52	=52
2.G\	1.g	0r	0r
4A\	.	.	.
4B-i\	.	.	.
4c\	.	.	.
[2d\	4f\	.	.
.	4e\	.	.
=53	=53	=53	=53
2d\]	4f\	0r	1r
.	4e\	.	.
1c	4d\	.	.
.	4c\	.	.
.	1d	.	1ff
2B\	.	.	.
=54	=54	=54	=54
1.c	1c	2.cc\	2.ee\
.	.	4b-i\	4dd\
.	1r	4a/	4cc\
.	.	4g/	4b-i\
[2d\	.	[2f/	[2a/
=55	=55	=55	=55
2d\]	0r	2f/]	2a/]
4c\	.	1a	1cc
4B-i\	.	.	.
2A\	.	.	.
2B-i\	.	4g/	4b-i\
.	.	4f/	4a/
=56	=56	=56	=56
2c\	0r	2e/	2g/
2F\	.	2f/	1a
2G\	.	4e/	.
.	.	4c/	.
2E\	.	[2g/	2g/
=57	=57	=57	=57
1F	0r	2g/]	2a/
.	.	1f	2f/
1c	.	.	1g
.	.	2e/	.
=58	=58	=58	=58
1F	2r	1f	2f/
.	1a	.	2ff\
1r	.	1c	4ee\
.	.	.	4cc\
.	2g\	.	[2gg\
=59	=59	=59	=59
1r	2a\	1r	2gg\]
.	2f\	.	2.ff\
1c	1g	1cc	.
.	.	.	4ee\
.	.	.	2ee\
=60	=60	=60	=60
1.d	1f	1a	0ff
.	1f	[1dd	.
2c\	.	.	.
=61	=61	=61	=61
2B-i\	1.g	2dd\]	0r
2A\	.	2cc\	.
1G	.	2b-i\	.
.	2f\	2a/	.
=62	=62	=62	=62
1.c	2e\	1g	0r
.	2d\	.	.
.	[1c	[1cc	.
2B-i\	.	.	.
=63	=63	=63	=63
2A\	1c]	2cc\]	0r
2G\	.	2b-i\	.
2F\	[1f	2a/	.
2E\	.	2g/	.
=64	=64	=64	=64
1D	2f\]	2f/	0r
.	2e\	2a/	.
[1G	2d\	2.b-i\	.
.	2c\	.	.
.	.	4a/	.
=65	=65	=65	=65
2G\]	2B-\	4g/	0r
.	.	4f/	.
2F\	2A/	1a	.
1B-i	1d	.	.
.	.	2g/	.
=66	=66	=66	=66
1A	1c	0a	0r
2F\	2.f\	.	.
2A\	.	.	.
.	4e\	.	.
=67	=67	=67	=67
4G\	4e\	0r	0r
4F\	4d\	.	.
4E\	1d	.	.
4D\	.	.	.
1E	.	.	.
.	2c#i\	.	.
=68	=68	=68	=68
0D	0d	1a	1r
.	.	1a	1ff
=69	=69	=69	=69
0r	0r	2g/	1.gg
.	.	1b-i	.
.	.	2a/	2ff\
=70	=70	=70	=70
0r	0r	2g/	2ee\
.	.	2f/	2dd\
.	.	2e/	[1cc
.	.	[2a/	.
=71	=71	=71	=71
1c	0r	2a/]	1cc]
.	.	2g/	.
[1d	.	2f/	[1ff
.	.	2e/	.
=72	=72	=72	=72
2d\]	0r	0d	2ff\]
2c\	.	.	2ee\
2B-i\	.	.	2dd\
2A\	.	.	2cc\
=73	=73	=73	=73
2G\	1r	1d	2b-i\
2F\	.	.	2a/
1B-	1g	1d	1dd
=74	=74	=74	=74
1A	2a\	2e/	1cc
.	2a\	2a/	.
2.d\	2f\	2a/	2.ff\
.	[2g\	2b-i\	.
4c\	.	.	4ee\
=75	=75	=75	=75
2c\	4g\]	4cc\	4ee\
.	4f\	4b-i\	4dd\
2d\	4e\	4a/	1dd
.	4d\	4g/	.
1A	1e	1a	.
.	.	.	2cc#i\
=76	=76	=76	=76
0Dl	0dl	0al	0ddl
!!LO:LB:i:g=z
=77||	=77||	=77||	=77||
*>C	*>C	*>C	*>C
*clefF4	*clefGv2	*clefG2	*clefG2
*k[]	*k[]	*k[]	*k[]
*M2/1	*M2/1	*M2/1	*M2/1
*met(C|)	*met(C|)	*met(C|)	*met(C|)
!!section: Fecit potentiam
!!!OMD: Fecit potentiam
0r	1.c	0r	1cc
.	.	.	1cc
.	4B-i\	.	.
.	4A/	.	.
=78	=78	=78	=78
0r	2.B-i\	1f	1dd
.	4A/	.	.
.	2F/	[1f	1cc
.	[2f\	.	.
=79	=79	=79	=79
0r	4f\]	1f]	2.ff\
.	4e\	.	.
.	2d\	.	.
.	.	.	4ee\
.	2c\	1g	2ee\
.	2G/	.	[2dd\
=80	=80	=80	=80
0r	2B-i\	1f	2dd\]
.	2c\	.	4cc\
.	.	.	4b-i\
.	1d	1f	1a
=81	=81	=81	=81
0r	4G/	2.b-\	1g
.	4A/	.	.
.	4B-i\	.	.
.	4c\	4a/	.
.	4d\	2a/	1r
.	4c\	.	.
.	4B-i\	[2g/	.
.	4A/	.	.
=82	=82	=82	=82
0r	4B-i\	2g/]	1dd
.	4G/	.	.
.	1c	4f/	.
.	.	4e/	.
.	.	1d	1dd
.	2Bni\	.	.
=83	=83	=83	=83
0r	1c	1c	1ee
.	2r	1r	2.cc\
.	2c\	.	.
.	.	.	4dd\
=84	=84	=84	=84
0r	2.G/	1g	4ee\
.	.	.	4ff\
.	.	.	1gg
.	4A/	.	.
.	2B-i\	1g	.
.	[2c\	.	4ff\
.	.	.	4ee\
=85	=85	=85	=85
0r	2c\]	1g	1dd
.	2B\	.	.
.	1c	1a	1cc
=86	=86	=86	=86
0r	2d\	2.f/	2r
.	1f	.	2cc\
.	.	4g/	.
.	.	4a/	2.cc\
.	.	4b-i\	.
.	4e\	[2cc\	.
.	4d\	.	4dd\
=87	=87	=87	=87
0r	2c\	2cc\]	2ee\
.	2F/	4b-i\	1ff
.	.	4a/	.
.	1c	1g	.
.	.	.	2ee\
=88	=88	=88	=88
0r	2.d\	2f/	2dd\
.	.	2f/	2.ff\
.	4d\	.	.
.	2d\	2.f/	.
.	.	.	4ee\
.	4c\	.	2dd\
.	4B-i\	4g/	.
=89	=89	=89	=89
0r	2A/	2a/	2cc\
.	2G/	1b-	1dd
.	1r	.	.
.	.	2a/	2cc\
=90	=90	=90	=90
0r	2r	2g/	2b-i\
.	2.G/	1b-i	1dd
.	4A/	.	.
.	4B-i\	4a/	4cc\
.	4c\	4g/	4b-\
=91	=91	=91	=91
0r	1d	4f/	4a/
.	.	4e/	4g/
.	.	4f/	4a/
.	.	4g/	4b-i\
.	2c\	2a/	2cc\
.	2G/	[2g/	[2b-\
=92	=92	=92	=92
1r	2B-i\	2g/]	4b-\]
.	.	.	4a/
.	2d\	1f	4g/
.	.	.	4f/
1c	1c	.	1g
.	.	2e/	.
=93	=93	=93	=93
2.d\	0r	0f	1f
4d\	.	.	.
2d\	.	.	1r
[2B-i\	.	.	.
=94	=94	=94	=94
2B-\]	0r	1r	0r
4A\	.	.	.
4G\	.	.	.
1A	.	1f	.
=95	=95	=95	=95
1G	0r	2.g/	0r
.	.	4g/	.
2r	.	2g/	.
2G\	.	[2e/	.
=96	=96	=96	=96
2A\	0r	2e/]	0r
2.c\	.	4d/	.
.	.	4c/	.
.	.	1d	.
4B\	.	.	.
2B\	.	.	.
=97	=97	=97	=97
2.c\	0r	2c/	0r
.	.	2g/	.
4d\	.	.	.
2e\	.	2g/	.
[2f\	.	[2a/	.
=98	=98	=98	=98
4f\]	0f	4a/]	1r
4e\	.	4g/	.
4d\	.	1cc	.
4c\	.	.	.
1d	.	.	1ff
.	.	2b\	.
=99	=99	=99	=99
1c	1g	[0cc	1ee
1f	2f\	.	1ff
.	2F/	.	.
=100	=100	=100	=100
1e	1c	0cc]	1cc
1f	2A/	.	1ff
.	2F/	.	.
=101	=101	=101	=101
1c	1c	0r	2ee\
.	.	.	2cc\
1f	1B-i	.	4dd\
.	.	.	4cc\
.	.	.	4b-i\
.	.	.	4a/
=102	=102	=102	=102
2e\	2c\	0r	2g/
2c\	2A/	.	2a/
4d\	1G	.	4b-i\
4c\	.	.	4a/
4B-i\	.	.	4g/
4A\	.	.	4f/
=103	=103	=103	=103
1G	2r	1r	4e/
.	.	.	4d/
.	2g\	.	2e/
1F	2a\	1f	2f/
.	2f\	.	2a/
=104	=104	=104	=104
1r	1g	1e	1g
2r	2a\	1f	1f
2f\	2f\	.	.
=105	=105	=105	=105
2e\	1g	1c	2r
2c\	.	.	2ee\
2d\	1f	1f	2ff\
2B-i\	.	.	2dd\
=106	=106	=106	=106
2c\	2r	2e/	2cc\
2A\	2a\	2c/	2ee\
2B-i\	2f\	2d/	2dd\
2G\	2g\	2e/	[2gg\
=107	=107	=107	=107
2A\	2c\	1f	2gg\]
2F\	2d\	.	2.ff\
1c	1c	1g	.
.	.	.	4ee\
.	.	.	2ee\
=108	=108	=108	=108
0F	1r	1f	1ff
.	2r	2r	2r
.	2f\	2a/	2ff\
=109	=109	=109	=109
0r	2f\	2a/	2ff\
.	2c\	2g/	2ee\
.	2F/	2a/	2ff\
.	2G/	4g/	4ee\
.	.	4f/	4dd\
=110	=110	=110	=110
2r	2A/	2e/	1cc
2f\	2F/	2a/	.
2f\	1c	2a/	1r
2e\	.	2g/	.
=111	=111	=111	=111
2f\	1F	2a/	0r
4e\	.	4g/	.
4d\	.	4f/	.
4c\	1r	4e/	.
4B-i\	.	4d/	.
2c\	.	2e/	.
=112	=112	=112	=112
2d\	1f	1d	2r
2f\	.	.	2.a/
2f\	2d\	1r	.
.	.	.	4b-i\
2f\	2a\	.	4cc\
.	.	.	4dd\
=113	=113	=113	=113
2e\	2g\	0r	2ee\
2d\	2f\	.	2ff\
4c\	1e	.	2.gg\
4B-i\	.	.	.
2c\	.	.	.
.	.	.	4ee\
=114	=114	=114	=114
1d	4d\	2r	2ff\
.	4e\	.	.
.	4f\	2.d/	2ff\
.	4g\	.	.
1D	2a\	.	2ff\
.	.	4e/	.
.	2d\	4f/	2ff\
.	.	4g/	.
=115	=115	=115	=115
1r	2c\	2a/	2ee\
.	2B-i\	2b-i\	2dd\
2r	2A/	2.cc\	2cc\
2d\	2f\	.	[2ff\
.	.	4a/	.
=116	=116	=116	=116
2d\	2f\	2b-i\	4ff\]
.	.	.	4dd\
2d\	2d\	1a	2ff\
2c\	2e\	.	4ee\
.	.	.	4cc\
2B-i\	2d\	2g/	2dd\
=117	=117	=117	=117
2A\	2e\	2a/	2cc\
2d\	2f\	2a/	2ff\
4c\	2c\	2a/	4ee\
4A\	.	.	4cc\
2B-i\	2g\	2g/	[2dd\
=118	=118	=118	=118
1A	2f\	2a/	2dd\]
.	4e\	4g/	4cc#i\
.	4d\	4f/	4b\
1A	1e	4e/	1cc#i
.	.	4d/	.
.	.	2e/	.
=119	=119	=119	=119
[0Dl	[0dl	2f/	[0ddl
.	.	2d/	.
.	.	2.f/	.
.	.	4g/	.
=120	=120	=120	=120
0D]	0d]	0al	0dd]
!!LO:LB:i:g=z
=121||	=121||	=121||	=121||
*>D1	*>D1	*>D1	*>D1
*clefF4	*clefGv2	*clefG2	*clefG2
*k[]	*k[]	*k[]	*k[]
*M2/1	*M2/1	*M2/1	*M2/1
*met(C|)	*met(C|)	*met(C|)	*met(C|)
!!section: Esurientes implevit
!!!OMD: Esurientes implevit
1c	0r	0r	0r
2d\	.	.	.
[2c\	.	.	.
=122	=122	=122	=122
4c\]	1c	0r	0r
4B-i\	.	.	.
4A\	.	.	.
4G\	.	.	.
2.F\	2d\	.	.
.	[2c\	.	.
4G\	.	.	.
=123	=123	=123	=123
4A\	4c\]	0r	0r
4B-i\	4d\	.	.
4c\	4e\	.	.
4d\	4f\	.	.
2c\	4g\	.	.
.	4a\	.	.
4B-i\	[2g\	.	.
4A\	.	.	.
=124	=124	=124	=124
4B-i\	4g\]	0r	0r
4A\	4f\	.	.
4G\	1f	.	.
4F\	.	.	.
1G	.	.	.
.	2e\	.	.
=125	=125	=125	=125
1F	0f	0r	0r
1B-	.	.	.
=126	=126	=126	=126
1B-	1r	0r	0r
1A	1f	.	.
=127	=127	=127	=127
1B-	1f	0r	0r
1c	1e	.	.
=128	=128	=128	=128
1d	1f	0r	0r
2B-i\	1g	.	.
[2c\	.	.	.
=129	=129	=129	=129
4c\]	1a	0r	0r
4B-i\	.	.	.
4A\	.	.	.
4G\	.	.	.
2A\	2f\	.	.
[2B-i\	[2g\	.	.
=130	=130	=130	=130
4B-\]	4g\]	0r	0r
4A\	4f\	.	.
4G\	4e\	.	.
4F\	4d\	.	.
2G\	2e\	.	.
[2A\	[2f\	.	.
=131	=131	=131	=131
4A\]	4f\]	0r	0r
4G\	4e\	.	.
4F\	4d\	.	.
4E\	4c\	.	.
2F\	2d\	.	.
2G\	[2e\	.	.
=132	=132	=132	=132
2E\	4e\]	0r	0r
.	4d\	.	.
4F\	4c\	.	.
4G\	4B-i\	.	.
4A\	2c\	.	.
4F\	.	.	.
2B-i\	2d\	.	.
=133	=133	=133	=133
2G\	2B-i\	0r	0r
2.A\	1c	.	.
4G\	.	.	.
[2F\	4B-i\	.	.
.	4A/	.	.
=134	=134	=134	=134
2F\]	1G	0r	0r
2E\	.	.	.
2F\	2r	.	.
2A\	2f\	.	.
=135	=135	=135	=135
4G\	4e\	0r	0r
4A\	4f\	.	.
4B-i\	4g\	.	.
4c\	4a\	.	.
2A\	4f\	.	.
.	4e\	.	.
2G\	[2g\	.	.
=136	=136	=136	=136
2E\	2g\]	0r	0r
2F\	1f	.	.
1G	.	.	.
.	2e\	.	.
=137	=137	=137	=137
1F	[0f	0r	0r
2r	.	.	.
[2B-\	.	.	.
=138	=138	=138	=138
4B-\]	0f_	0r	0r
4A\	.	.	.
4B-i\	.	.	.
4c\	.	.	.
2d\	.	.	.
4c\	.	.	.
4B-\	.	.	.
=139	=139	=139	=139
2A\	0f]	0r	0r
2.B-\	.	.	.
4A\	.	.	.
4A\	.	.	.
4G\	.	.	.
=140	=140	=140	=140
1F	2r	0r	0r
.	2.f\	.	.
2r	.	.	.
.	4e\	.	.
2F\	4e\	.	.
.	4d\	.	.
=141	=141	=141	=141
1F	1c	0r	0r
2G\	2r	.	.
[2A\	2f\	.	.
=142	=142	=142	=142
2A\]	1f	0r	0r
4G\	.	.	.
4F\	.	.	.
2E\	2g\	.	.
2F\	[2a\	.	.
=143	=143	=143	=143
2D\	2a\]	0r	0r
1d	4g\	.	.
.	4f\	.	.
.	4e\	.	.
.	4d\	.	.
2c#i\	2e\	.	.
=144	=144	=144	=144
1d	2d\	0r	0r
.	2.a\	.	.
2.d\	.	.	.
.	4g\	.	.
.	4f\	.	.
4c\	4e\	.	.
=145	=145	=145	=145
4B-i\	2f\	0r	0r
4A\	.	.	.
2B-i\	2g\	.	.
2c\	2e\	.	.
2A\	2f\	.	.
=146	=146	=146	=146
2B-i\	2d\	0r	0r
2G\	2.e\	.	.
2.A\	.	.	.
.	4d\	.	.
.	4c\	.	.
4G\	4B-i\	.	.
=147	=147	=147	=147
4F\	2c\	0r	0r
4E\	.	.	.
2F\	2d\	.	.
2G\	2B-i\	.	.
2E\	2c\	.	.
=148	=148	=148	=148
2F\	2A/	0r	0r
2D\	1d	.	.
1E	.	.	.
.	2c\	.	.
=149	=149	=149	=149
2D\	2d\	0r	0r
2A\	2.f\	.	.
2.B-i\	.	.	.
.	4e\	.	.
.	4d\	.	.
4A\	4c\	.	.
=150	=150	=150	=150
4G\	4B-i\	0r	0r
4F\	4A/	.	.
4E\	1d	.	.
4D\	.	.	.
1E	.	.	.
.	2c#i\	.	.
=151	=151	=151	=151
0Dl	0dl	0r	0r
!!LO:LB:i:g=z
=152||	=152||	=152||	=152||
*>D2	*>D2	*>D2	*>D2
*clefF4	*clefGv2	*clefGv2	*clefG2
*k[]	*k[]	*k[]	*k[]
*M2/1	*M2/1	*M2/1	*M2/1
*met(C|)	*met(C|)	*met(C|)	*met(C|)
!!section: Esurientes implevit (alternate version)
!!!OMD: Esurientes implevit (alternate version)
!!This section is an alternate version of the (last) Esurientes section. 
!! I _think_ the best way to handle this is just to write 
!! "Esurientes implevit (alternate version)" rather than go to the 
!! trouble of creating new file names, etc. for just one section. 
0r	0r	0G	0r
=153	=153	=153	=153
0r	0r	2.A/	0cc
.	.	4G/	.
.	.	[1c	.
=154	=154	=154	=154
0r	0r	2c\]	2.dd\
.	.	4B\	.
.	.	4A/	4cc\
.	.	1B	[1ff
=155	=155	=155	=155
0r	0c	0c	2ff\]
.	.	.	4ee\
.	.	.	4dd\
.	.	.	1ee
=156	=156	=156	=156
0F	2.d\	0r	2.ff\
.	4c\	.	4ee\
.	[1f	.	2cc\
.	.	.	[2dd\
=157	=157	=157	=157
1G	2f\]	0r	2dd\]
.	4e\	.	2cc\
.	4d\	.	.
1G	1e	.	1b-i
=158	=158	=158	=158
1.F	1f	0r	0a
.	2d\	.	.
2D\	[2f\	.	.
=159	=159	=159	=159
2F\	4f\]	0r	1r
.	4e\	.	.
2G\	1d	.	.
1E	.	.	1ee
.	2c#i\	.	.
=160	=160	=160	=160
0D	0d	1.A	1.ff
.	.	2G/	2ee\
=161	=161	=161	=161
0r	0r	1F	1dd
.	.	2E/	2cc\
.	.	[2F/	[2dd\
=162	=162	=162	=162
0r	1r	4F/]	4dd\]
.	.	4E/	4cc\
.	.	1A	2a/
.	1e	.	1b-i
.	.	2G/	.
=163	=163	=163	=163
2r	2.f\	0A	0a
2F\	.	.	.
.	4e\	.	.
4F\	4f\	.	.
4E\	4g\	.	.
4F\	[2a\	.	.
4G\	.	.	.
=164	=164	=164	=164
2.A\	4a\]	0r	0r
.	4g\	.	.
.	4a\	.	.
4G\	4b-i\	.	.
4A\	2cc\	.	.
4B-i\	.	.	.
[2c\	4b-i\	.	.
.	4a\	.	.
=165	=165	=165	=165
4c\]	2g\	0r	0r
4d\	.	.	.
4e\	2e\	.	.
4c\	.	.	.
2d\	2f\	.	.
[2f\	2a\	.	.
=166	=166	=166	=166
2f\]	1g	1r	0r
2e\	.	.	.
2.f\	[1f	2r	.
.	.	2D/	.
4F\	.	.	.
=167	=167	=167	=167
1F	1f]	2.F/	2r
.	.	.	2a/
.	.	4G/	.
1r	1r	2A/	2.cc\
.	.	2B-i\	.
.	.	.	4dd\
=168	=168	=168	=168
0r	0r	2c\	2ee\
.	.	2A/	2ff\
.	.	2B-i\	2.gg\
.	.	[2c\	.
.	.	.	4ff\
=169	=169	=169	=169
0r	0r	4c\]	4ee\
.	.	4B-i\	4dd\
.	.	4A/	2.ee\
.	.	4G/	.
.	.	2.A/	.
.	.	.	4dd\
.	.	.	4cc\
.	.	4G/	4b-i\
=170	=170	=170	=170
0r	0r	4F/	2cc\
.	.	4E/	.
.	.	1F	2.dd\
.	.	.	4cc\
.	.	2A/	[2ff\
=171	=171	=171	=171
1r	1r	1G	2ff\]
.	.	.	2ee\
2r	2r	2F/	2ff\
2F\	2a\	2c\	2ff\
=172	=172	=172	=172
2F\	2a\	2c\	2ff\
2F\	2a\	2c\	2ff\
1F	1a	[1c	1ff
=173	=173	=173	=173
2r	2r	1c]	0r
1A	1f	.	.
.	.	1r	.
2A\	2f\	.	.
=174	=174	=174	=174
2.G\	2.e\	1r	1r
4F\	4d\	.	.
2E\	2c\	2r	2r
2D\	2d\	[2A/	[2ff\
=175	=175	=175	=175
0r	0r	2A/]	2ff\]
.	.	2A/	2ff\
.	.	2.G/	2.ee\
.	.	4F/	4dd\
=176	=176	=176	=176
2r	1r	2E/	2cc\
2.D\	.	2D/	2dd\
.	2.A/	1r	1r
4E\	.	.	.
4F\	.	.	.
4G\	4B-i\	.	.
=177	=177	=177	=177
4A\	4c\	0r	0r
4B-i\	4d\	.	.
4c\	4e\	.	.
4A\	4f\	.	.
2B-i\	4g\	.	.
.	4f\	.	.
[2c\	4e\	.	.
.	4d\	.	.
=178	=178	=178	=178
2c\]	2c\	0r	0r
4B-i\	1f	.	.
4A\	.	.	.
1G	.	.	.
.	2e\	.	.
=179	=179	=179	=179
2F\	2f\	0r	0r
1A	1f	.	.
2A\	2f\	.	.
=180	=180	=180	=180
2.G\	2.e\	1r	1r
4F\	4d\	.	.
2E\	2c\	2r	2r
2D\	2d\	[2A/	[2ff\
=181	=181	=181	=181
0r	0r	2A/]	2ff\]
.	.	2A/	2ff\
.	.	2.G/	2.ee\
.	.	4F/	4dd\
=182	=182	=182	=182
2r	2r	2E/	2cc\
4D\	1f	2D/	2dd\
4E\	.	.	.
4F\	.	1A	4a/
4G\	.	.	4b-i\
4A\	2f\	.	4cc\
4B-i\	.	.	4dd\
=183	=183	=183	=183
4c\	1e	1G	4ee\
4d\	.	.	4ff\
4e\	.	.	4gg\
4c\	.	.	4ee\
2d\	2d\	2F/	2ff\
2A\	2c\	[2A/	[2ee\
=184	=184	=184	=184
1B-i	1d	2A/]	4ee\]
.	.	.	4dd\
.	.	2G/	1dd
1A	1e	[1Al	.
.	.	.	2cc#i\
=185	=185	=185	=185
0Dl	0dl	0A]	0ddl
!!LO:LB:i:g=z
=186||	=186||	=186||	=186||
*>E	*>E	*>E	*>E
*clefF4	*clefGv2	*clefG2	*clefG2
*k[]	*k[]	*k[]	*k[]
*M2/1	*M2/1	*M2/1	*M2/1
*met(C|)	*met(C|)	*met(C|)	*met(C|)
!!section: Sicut locutus est
!!!OMD: Sicut locutus est
0c	0r	0r	1r
.	.	.	1cc
=187	=187	=187	=187
1d	0r	0r	1b-i
1c	.	.	2.cc\
.	.	.	4b-i\
=188	=188	=188	=188
2.f\	0r	0r	4a/
.	.	.	4g/
.	.	.	2.f/
4e\	.	.	.
2d\	.	.	.
.	.	.	4g/
2c\	.	.	4a/
.	.	.	8g/L
.	.	.	8a/J
=189	=189	=189	=189
4d\	1r	0r	4b-i\
4c\	.	.	4a/
1f	.	.	4g/
.	.	.	4f/
.	1c	.	1g
2e\	.	.	.
=190	=190	=190	=190
1f	1d	1r	0f
1F	1c	1cc	.
=191	=191	=191	=191
0r	1d	1b-i	0r
.	1c	2.cc\	.
.	.	4b-i\	.
=192	=192	=192	=192
0r	2.f\	4a/	0r
.	.	4g/	.
.	.	2.f/	.
.	4e\	.	.
.	2d\	.	.
.	.	4g/	.
.	2c\	4a/	.
.	.	8g/L	.
.	.	8a/J	.
=193	=193	=193	=193
1r	4d\	4b-i\	0r
.	4c\	4a/	.
.	1f	4g/	.
.	.	4f/	.
1c	.	1g	.
.	2e\	.	.
=194	=194	=194	=194
1d	1f	2r	1r
.	.	2f/	.
2c\	1r	2g/	1cc
[2f\	.	[2a/	.
=195	=195	=195	=195
2f\]	0r	2a/]	1dd
4e\	.	4g/	.
4d\	.	4f/	.
2f\	.	1a	1cc
2F\	.	.	.
=196	=196	=196	=196
0F	0r	1a	1.ff
.	.	1a	.
.	.	.	4ee\
.	.	.	4dd\
=197	=197	=197	=197
2r	0r	2r	2ff\
2f\	.	1cc	4ee\
.	.	.	4dd\
2f\	.	.	1cc
[2f\	.	4b-i\	.
.	.	4a/	.
=198	=198	=198	=198
2f\]	1r	2cc\	2r
4e\	.	2f/	2ff\
4d\	.	.	.
2f\	1f	1cc	2ff\
2F\	.	.	[2ff\
=199	=199	=199	=199
1c	1g	1cc	2ff\]
.	.	.	2ee\
1F	1f	1a	2ff\
.	.	.	4ee\
.	.	.	4dd\
=200	=200	=200	=200
1.f	[0a	0r	2cc\
.	.	.	1dd
2f\	.	.	[2cc\
=201	=201	=201	=201
1f	0a]	1.cc	4cc\]
.	.	.	4b-i\
.	.	.	4a/
.	.	.	4g/
1f	.	.	2f/
.	.	2cc\	[2ff\
=202	=202	=202	=202
1F	1a	1cc	2ff\]
.	.	.	2ff\
4F\	1a	1cc	1ff
4G\	.	.	.
4A\	.	.	.
4B-i\	.	.	.
=203	=203	=203	=203
0c	1.g	1.cc	1.ee
.	4f\	4b-i\	4dd\
.	4e\	4a/	4cc\
=204	=204	=204	=204
0G	2g\	0b-i	0dd
.	4f\	.	.
.	4e\	.	.
.	2d\	.	.
.	[2g\	.	.
=205	=205	=205	=205
1r	2g\]	1r	1r
.	4f\	.	.
.	4e\	.	.
1d	1f	1b-i	1dd
=206	=206	=206	=206
1c	1g	1.cc	2ee\
.	.	.	2.gg\
1c	2e\	.	.
.	.	.	4ff\
.	[2g\	4b-i\	4ee\
.	.	4a/	4dd\
=207	=207	=207	=207
1.c	4g\]	1g	2.cc\
.	4f\	.	.
.	4e\	.	.
.	4d\	.	4dd\
.	2c\	1cc	2ee\
4B-i\	[2f\	.	2ff\
4A\	.	.	.
=208	=208	=208	=208
1G	2f\]	1b-i	2.gg\
.	2e\	.	.
.	.	.	4ff\
[1F	1f	1a	2dd\
.	.	.	[2cc\
=209	=209	=209	=209
1F]	1a	[0cc	2cc\]
.	.	.	2.ff\
1c	1g	.	.
.	.	.	4ee\
.	.	.	2ee\
=210	=210	=210	=210
1F	0f	0cc]	0ff
2r	.	.	.
[2f\	.	.	.
=211	=211	=211	=211
2f\]	2r	0r	0r
2f\	1a	.	.
1f	.	.	.
.	2a\	.	.
=212	=212	=212	=212
2r	0a	0r	0r
2f\	.	.	.
2f\	.	.	.
2f\	.	.	.
=213	=213	=213	=213
2e\	2r	0r	0r
2c\	2a\	.	.
2d\	2a\	.	.
2f\	2a\	.	.
=214	=214	=214	=214
4e\	2g\	0r	0r
4d\	.	.	.
4c\	2e\	.	.
4B-i\	.	.	.
2A\	2f\	.	.
2F\	2a\	.	.
=215	=215	=215	=215
2G\	4g\	0r	0r
.	4f\	.	.
1A	4e\	.	.
.	4d\	.	.
.	4c\	.	.
.	4B-i\	.	.
4G\	4c\	.	.
4F\	4d\	.	.
=216	=216	=216	=216
4G\	2e\	0r	0r
4F\	.	.	.
4E\	1d	.	.
4D\	.	.	.
1E	.	.	.
.	2c#i\	.	.
=217	=217	=217	=217
0D	0d	1a	2r
.	.	.	2ff\
.	.	2a/	2ff\
.	.	2a/	2ff\
=218	=218	=218	=218
0r	1r	2g/	2ee\
.	.	2e/	2cc\
.	2r	2.f/	2dd\
.	2d\	.	2ff\
.	.	4e/	.
=219	=219	=219	=219
0r	2g\	2c/	2ee\
.	2g\	2.e/	2.gg\
.	2g\	.	.
.	.	4d/	4ff\
.	2g\	4c/	4ee\
.	.	4B-i/	4dd\
=220	=220	=220	=220
2r	2a\	2A/	2cc\
2f\	1a	2a/	2dd\
2f\	.	2cc\	4a/
.	.	.	4b-i\
2f\	4g\	2cc\	4cc\
.	4f\	.	4dd\
=221	=221	=221	=221
2e\	2g\	2cc\	4ee\
.	.	.	4ff\
2c\	2e\	2cc\	4gg\
.	.	.	4ee\
2d\	2d\	2f/	2ff\
2D\	[2a\	2f/	4ee\
.	.	.	4dd\
=222	=222	=222	=222
2.F\	2a\]	1.a	2cc\
.	4g\	.	1dd
4G\	4f\	.	.
1A	1e	.	.
.	.	2a/	2cc#i\
=223	=223	=223	=223
0Dl	0dl	0al	0ddl
!!LO:LB:i:g=z
=224||	=224||	=224||	=224||
*>F	*>F	*>F	*>F
*clefF4	*clefGv2	*clefG2	*clefG2
*k[]	*k[]	*k[]	*k[]
*M2/1	*M2/1	*M2/1	*M2/1
*met(C|)	*met(C|)	*met(C|)	*met(C|)
!!section: Sicut erat
!!!OMD: Sicut erat
0r	0c	1r	1.cc
.	.	[1cc	.
.	.	.	4dd\
.	.	.	4ee\
=225	=225	=225	=225
0r	0d	2cc\]	1ff
.	.	4b\	.
.	.	4a/	.
.	.	1b	1ff
=226	=226	=226	=226
0r	[0c	1cc	1ee
.	.	2cc\	2ee\
.	.	[2a/	[2cc\
=227	=227	=227	=227
0r	0c]	2a/]	2cc\]
.	.	4g/	4b-i\
.	.	4f/	4a/
.	.	2e/	2g/
.	.	4f/	4a/
.	.	4e/	4g/
=228	=228	=228	=228
1.F	[0f	2.f/	0a
.	.	4e/	.
.	.	2c/	.
2F\	.	[2cc\	.
=229	=229	=229	=229
1F	0f]	2cc\]	1r
.	.	2cc\	.
1F	.	2cc\	[1a
.	.	2cc\	.
=230	=230	=230	=230
0F	1r	[0cc	2a/]
.	.	.	2a/
.	[1f	.	2a/
.	.	.	2a/
=231	=231	=231	=231
2r	2f\]	0cc]	0a
2.F\	2f\	.	.
.	2f\	.	.
4G\	.	.	.
2A\	2f\	.	.
=232	=232	=232	=232
2D\	0f	0r	2r
2.F\	.	.	2.a/
4G\	.	.	4b-i\
2A\	.	.	2cc\
=233	=233	=233	=233
2D\	0f	0r	2f/
2.F\	.	.	2.a/
4G\	.	.	4b-i\
4A\	.	.	4cc\
4B-i\	.	.	4dd\
=234	=234	=234	=234
0c	0e	0cc	2ee\
.	.	.	2ff\
.	.	.	1gg
=235	=235	=235	=235
1d	0f	1a	2ff\
.	.	.	1ff
1d	.	1b	.
.	.	.	4ee\
.	.	.	4dd\
=236	=236	=236	=236
[0c	1.g	0cc	0ee
.	[2a\	.	.
=237	=237	=237	=237
0c]	2a\]	1cc	1r
.	4g\	.	.
.	4f\	.	.
.	1g	1cc	1ee
=238	=238	=238	=238
0F	[0f	2a/	2.ff\
.	.	2.cc\	.
.	.	.	4ee\
.	.	.	2dd\
.	.	4b-i\	.
.	.	[2a/	[2cc\
=239	=239	=239	=239
1r	1f]	4a/]	2cc\]
.	.	4g/	.
.	.	1f	4b-i\
.	.	.	4a/
1c	1g	.	1g
.	.	2e/	.
=240	=240	=240	=240
2.F\	[0a	0f	1f
4G\	.	.	.
2A\	.	.	2e/
2F\	.	.	[2f/
=241	=241	=241	=241
2.f\	0a]	0r	4f/]
.	.	.	4g/
.	.	.	4a/
4e\	.	.	4b-i\
2c\	.	.	2cc\
2d\	.	.	2f/
=242	=242	=242	=242
2A\	1a	1r	2r
2d\	.	.	2ff\
2c\	1a	1a	2ee\
2d\	.	.	2ff\
=243	=243	=243	=243
0G	0g	2b-i\	2gg\
.	.	1b-i	4ff\
.	.	.	4ee\
.	.	.	2dd\
.	.	2b-i\	[2gg\
=244	=244	=244	=244
1r	2e\	2g/	2gg\]
.	2f\	2a/	2ff\
2r	1g	[1b-i	2ee\
[2e\	.	.	[2gg\
=245	=245	=245	=245
2e\]	2e\	1b-]	2gg\]
2d\	2f\	.	2ff\
2c\	1g	[1cc	2ee\
[2e\	.	.	[2gg\
=246	=246	=246	=246
2e\]	2g\	2cc\]	2gg\]
4d\	1a	1dd	4ff\
4c\	.	.	4ee\
2d\	.	.	2dd\
2e\	4g\	4cc\	[2gg\
.	4f\	4b-i\	.
=247	=247	=247	=247
1f	1a	2.a/	2gg\]
.	.	.	1ff
.	.	4b-i\	.
1c	1g	1cc	.
.	.	.	2ee\
=248	=248	=248	=248
0F	0f	1a	0ff
.	.	2r	.
.	.	[2cc\	.
=249	=249	=249	=249
2r	0r	2cc\]	0r
1f	.	2b-i\	.
.	.	2a/	.
2e\	.	2g/	.
=250	=250	=250	=250
2d\	0r	2f/	0r
2c\	.	2e/	.
2B-i\	.	2d/	.
2A\	.	2a/	.
=251	=251	=251	=251
2G\	0r	2.b-i\	0r
2d\	.	.	.
.	.	4a/	.
2.e\	.	4g/	.
.	.	4f/	.
.	.	[2e/	.
4d\	.	.	.
=252	=252	=252	=252
4c\	0r	2e/]	0r
4B-i\	.	.	.
1A	.	2.a/	.
.	.	4g/	.
[2d\	.	4f/	.
.	.	4e/	.
=253	=253	=253	=253
4d\]	0r	2d/	0r
4c\	.	.	.
4B-i\	.	2.g/	.
4A\	.	.	.
2G\	.	.	.
.	.	4f/	.
[2A\	.	4e/	.
.	.	4d/	.
=254	=254	=254	=254
2A\]	0r	2c/	0r
4G\	.	1d	.
4F\	.	.	.
1E	.	.	.
.	.	2c#i/	.
=255	=255	=255	=255
[0D	2r	0d	0r
.	1a	.	.
.	2g\	.	.
=256	=256	=256	=256
0D]	2.f\	0r	2r
.	.	.	1ff
.	4e\	.	.
.	2d\	.	.
.	2a\	.	2ee\
=257	=257	=257	=257
0r	2.b-\	0r	2dd\
.	.	.	2cc\
.	4a\	.	.
.	2g\	.	2b-i\
.	2f\	.	2a/
=258	=258	=258	=258
0r	2e\	0r	2g/
.	2d\	.	2dd\
.	2c\	.	2.ee\
.	2g\	.	.
.	.	.	4dd\
=259	=259	=259	=259
0r	2.a\	0r	4cc\
.	.	.	4b-i\
.	.	.	1a
.	4g\	.	.
.	4f\	.	.
.	4e\	.	.
.	[2d\	.	[2dd\
=260	=260	=260	=260
0r	2d\]	0r	4dd\]
.	.	.	4cc\
.	2.g\	.	4b-i\
.	.	.	4a/
.	.	.	2g/
.	4f\	.	.
.	4e\	.	[2gg\
.	4d\	.	.
=261	=261	=261	=261
0r	2c\	0r	4gg\]
.	.	.	4ff\
.	1a	.	4ee\
.	.	.	4dd\
.	.	.	2cc\
.	4g\	.	[2dd\
.	4f\	.	.
=262	=262	=262	=262
1r	1e	1r	2dd\]
.	.	.	2cc#i\
2r	1d	2r	2dd\
[2d\	.	[2a/	[2ff\
=263	=263	=263	=263
2d\]	2r	2a/]	2ff\]
2d\	1a	2a/	2ff\
2d\	.	2a/	2ff\
2d\	2a\	2a/	2ff\
=264	=264	=264	=264
2.c\	2a\	1cc	2ee\
.	2e\	.	2.gg\
4B-i\	.	.	.
4G\	2.g\	2b-i\	.
4A\	.	.	4ff\
[2B-\	.	[2dd\	4dd\
.	4f\	.	4ee\
=265	=265	=265	=265
4B-\]	4d\	4dd\]	2.ff\
4A\	4e\	4cc\	.
4F\	2.f\	4a/	.
4G\	.	4b-i\	4ee\
2.A\	.	2cc\	4cc\
.	4e\	.	4dd\
.	4c\	[2cc\	[2ee\
4B-i\	4d\	.	.
=266	=266	=266	=266
2c\	2e\	4cc\]	2ee\]
.	.	4b-i\	.
2d\	2f\	4a/	1dd
.	.	4g/	.
1A	1e	1a	.
.	.	.	2cc#i\
=267	=267	=267	=267
0Dl	0dl	1b-i	0ddl
.	.	1al	.
==	==	==	==
*-	*-	*-	*-
!!!RDF**kern: l=long note in original notation
!!!RDF**kern: i=editorial accidental
!!!ENC:	01-04-2013
!!!END:	2013/07/24/
!!!EED:	Jesse Rodin
!!!EEV:	2013/08/05/
!!!ONB:	Translated from MusicXML and edited on 2013/08/05/ by Craig Sapp
!!muse2ps: C^@{COM}^i2I150v85,85,85,150Q1c80
